src/asset/16px/link.svg

<svg width="16" height="16" viewBox="0 0 16 16" fill="none" xmlns="http://www.w3.org/2000/svg">
    <path fill-rule="evenodd" clip-rule="evenodd" d="M6.89543 9.10427C7.15578 9.36462 7.57789 9.36462 7.83824 9.10427L12.6332 4.30935V7.02339C12.6332 7.39158 12.9316 7.69006 13.2998 7.69006C13.668 7.69006 13.9665 7.39158 13.9665 7.02339V2.69987C13.9665 2.33168 13.668 2.0332 13.2998 2.0332L8.97631 2.0332C8.60812 2.0332 8.30965 2.33168 8.30965 2.69987C8.30965 3.06806 8.60812 3.36654 8.97631 3.36654L11.6904 3.36654L6.89543 8.16146C6.63508 8.42181 6.63508 8.84392 6.89543 9.10427Z" fill="currentColor"/>
    <path fill-rule="evenodd" clip-rule="evenodd" d="M4 4.66638C3.63181 4.66638 3.33333 4.96485 3.33333 5.33304V11.9997C3.33333 12.3679 3.63181 12.6664 4 12.6664H10.6667C11.0349 12.6664 11.3333 12.3679 11.3333 11.9997V9.83304C11.3333 9.46485 11.6318 9.16638 12 9.16638C12.3682 9.16638 12.6667 9.46485 12.6667 9.83304V11.9997C12.6667 13.1043 11.7712 13.9997 10.6667 13.9997H4C2.89543 13.9997 2 13.1043 2 11.9997V5.33304C2 4.22847 2.89543 3.33304 4 3.33304H6.16667C6.53486 3.33304 6.83333 3.63152 6.83333 3.99971C6.83333 4.3679 6.53486 4.66638 6.16667 4.66638H4Z" fill="currentColor"/>
</svg>

<svg width="16" height="16" fill="none" xmlns="http://www.w3.org/2000/svg"><path fill-rule="evenodd" clip-rule="evenodd" d="M6.895 9.104c.26.26.683.26.943 0l4.795-4.795v2.714a.667.667 0 101.334 0V2.7a.667.667 0 00-.667-.667H8.976a.667.667 0 000 1.334h2.714L6.895 8.16a.667.667 0 000 .943z" fill="currentColor"/><path fill-rule="evenodd" clip-rule="evenodd" d="M4 4.666a.667.667 0 00-.667.667V12c0 .368.299.666.667.666h6.667a.667.667 0 00.666-.666V9.833a.667.667 0 011.334 0V12a2 2 0 01-2 2H4a2 2 0 01-2-2V5.333a2 2 0 012-2h2.167a.667.667 0 010 1.333H4z" fill="currentColor"/></svg>
